icon/ir/add-database-script.svg

<svg stroke-width="1.5" viewBox="0 0 24 24" fill="none" xmlns="http://www.w3.org/2000/svg" height="1em" width="1em">
  <path d="M22 14V8.5M6 13V6C6 4.34315 7.34315 3 9 3H14" stroke="currentColor" stroke-linecap="round" stroke-linejoin="round"/>
  <path d="M16.9922 4H19.9922M22.9922 4L19.9922 4M19.9922 4V1M19.9922 4V7" stroke="currentColor" stroke-linecap="round" stroke-linejoin="round"/>
  <path d="M12 21H6C3.79086 21 2 19.2091 2 17C2 14.7909 3.79086 13 6 13H17H18C15.7909 13 14 14.7909 14 17C14 19.2091 15.7909 21 18 21C20.2091 21 22 19.2091 22 17V14" stroke="currentColor" stroke-linecap="round" stroke-linejoin="round"/>
</svg>

<svg width="24" height="24" stroke-width="1.5" fill="none" xmlns="http://www.w3.org/2000/svg"><path d="M22 14V8.5M6 13V6a3 3 0 0 1 3-3h5M16.992 4h3m3 0h-3m0 0V1m0 3v3M12 21H6a4 4 0 0 1 0-8h12a4 4 0 1 0 4 4v-3" stroke="currentColor" stroke-linecap="round" stroke-linejoin="round"/></svg>
